!!!COM: Haydn, Franz Joseph
!!!OTL: String Quartet in B-flat major
!!!OPS: Opus 1
!!!ONM: No. 1
!!!OMD: Menuetto I
!!!OMV: 2
!!!SCT: H III:1
!!!SCA: Thematisch-bibliographisches Werkevererzeichnis (A. van Hoboken)
!!!YOR: Bremner Edition, 1772
!!!ENC: Frances Bennion
!!!CDT: 1732/3/31/-1809/5/31/
!!!CNT: Oesterreich
!!!YEC: Copyright (c) 1994, 2000 Center for Computer Assisted Research in the Humanities
!!!YEM: Rights to all derivative editions reserved.
!!!YEM: Refer to licensing agreement for further details.
!!!YEN: United States of America
**kern	**kern	**kern	**kern
*k[b-e-]	*k[b-e-]	*k[b-e-]	*k[b-e-]
*E-:	*E-:	*E-:	*E-:
*clefF4	*clefC3	*clefF	*clefF
*M3/4	*M3/4	*M3/4	*M3/4
4BB-	4B-	2d	2b-
4BB-	4B-	.	.
4BB-	4B-	4g	4bb-
=2	=2	=2	=2
4BB-	4B-	8g	8bb-
.	.	8f	8aa
4BB-	4B-	8f	8aa
.	.	8e-	8gg
4BB-	4B-	8e-	8gg
.	.	8d	8ff
=3	=3	=3	=3
4BB-	4B-	4d	2ff
4BB-	4B-	4d	.
4BB-	4B-	4d	4ff#
=4	=4	=4	=4
4BB-	4B-	4e-	4gg
4BB-	4B-	4e-	4r
4BB-	4B-	4e-	12bb-
.	.	.	12gg
.	.	.	12ee-
=5	=5	=5	=5
4BB-	4B-	4f	4dd
4BB-	4B-	4f	4r
4BB-	4B-	12g	12ee-
.	.	12e-	12cc
.	.	12c	12a
=6	=6	=6	=6
4BB-	4B-	4d	4b-
2r	2r	2r	4r
.	.	.	12dd
.	.	.	12b-
.	.	.	12g
=7	=7	=7	=7
4F	4F	2d	2f
4F	4F	.	.
4F	4F	4c	4e-
=8	=8	=8	=8
4BB-	4F	4B-	4d
2r	2r	2r	4b-
.	.	.	12dd
.	.	.	12b-
.	.	.	12g
=9	=9	=9	=9
4FF	4F	2d	2f
4FF	4F	.	.
4FF	4F	4c	4e-
=10	=10	=10	=10
4BB-	4F	4B-	4d
2r	2r	2r	2r
=11	=11	=11	=11
4F	4f	4a	2cc
4F	4f	4a	.
4F	4f	4a	4ff
=12	=12	=12	=12
4G	4g	4b-	8ff
.	.	.	8ee
2r	2r	2r	8gg
.	.	.	8ff
.	.	.	8aa
.	.	.	8gg
=13	=13	=13	=13
4E	4c	4g	2cc
4E	4c	4g	.
4E	4c	4g	4bb-
=14	=14	=14	=14
4F	4c	4f	8bb-
.	.	.	8aa
2r	2r	2r	8ccc
.	.	.	8bb-
.	.	.	8ddd
.	.	.	8ccc
=15	=15	=15	=15
2.r	2.r	4f	2ccc
.	.	4a	.
.	.	4f	4fff
=16	=16	=16	=16
2.r	2.r	4cc	8fff
.	.	.	8eee
.	.	4b-	8eee
.	.	.	8ddd
.	.	4a	8ddd
.	.	.	8ccc
=17	=17	=17	=17
2.r	2.r	4b-	12ddd
.	.	.	12ccc
.	.	.	12bb-
.	.	4cc	4aa
.	.	4c	4gg
=18	=18	=18	=18
4r	4r	4f	2ff
4F	4f	2r	.
4E-	4e-	.	4r
=19	=19	=19	=19
4D	4d	4ff	4ff
2r	2r	4ff	4ff
.	.	4ff	4ff
=20	=20	=20	=20
4e-	4ee-	8ff#	8ff#
.	.	8gg	8gg
4e-	4ee-	8ff	8ff
.	.	8ee-	8ee-
4e-	4ee-	8dd	8dd
.	.	8cc	8cc
=21	=21	=21	=21
8c	8cc	4ee-	4ee-
8B-	8b-	.	.
8A	8a	4ee-	4ee-
8G	8g	.	.
8F	8f	4ee-	4ee-
8E-	8e-	.	.
=22	=22	=22	=22
4D	4d	8ee	8ee
.	.	8ff	8ff
2r	2r	8ee-	8ee-
.	.	8dd	8dd
.	.	8cc	8cc
.	.	8b-	8b-
=23	=23	=23	=23
4r	4r	4a	8a
.	.	.	8cc
4F	4f	4cc	4ee-
4F	4f	4b-	4dd
=24	=24	=24	=24
4F	4f	2a	2cc
8F	8f	.	.
8E-	8e-	.	.
8D	8d	4r	4r
8C	8c	.	.
=25	=25	=25	=25
4BB-	4B-	2d	2b-
4BB-	4B-	.	.
4BB-	4B-	4g	4bb-
=26	=26	=26	=26
4BB-	4B-	8g	8bb-
.	.	8f	8aa
4BB-	4B-	8f	8aa
.	.	8e-	8gg
4BB-	4B-	8e-	8gg
.	.	8d	8ff
=27	=27	=27	=27
4BB-	4B-	4d	2ff
4BB-	4B-	4d	.
4BB-	4B-	4d	4ff#
=28	=28	=28	=28
4BB-	4B-	4e-	4gg
4BB-	4B-	4e-	4r
4BB-	4B-	4e-	12bb-
.	.	.	12gg
.	.	.	12ee-
=29	=29	=29	=29
4BB-	4B-	4f	4dd
4BB-	4B-	4f	4r
4BB-	4B-	12g	12ee-
.	.	12e-	12cc
.	.	12c	12a
=30	=30	=30	=30
4BB-	4B-	4d	4b-
2r	2r	2r	4r
.	.	.	12dd
.	.	.	12b-
.	.	.	12g
=31	=31	=31	=31
4F	4F	2d	2f
4F	4F	.	.
4F	4F	4c	4e-
=32	=32	=32	=32
4BB-	4F	4B-	4d
2r	2r	2r	4b-
.	.	.	12dd
.	.	.	12b-
.	.	.	12g
=33	=33	=33	=33
4FF	4F	2d	2f
4FF	4F	.	.
4FF	4F	4c	4e-
=34	=34	=34	=34
4BB-	4B-	4B-	4d
2r	2r	2r	2r
=35	=35	=35	=35
2E-	2e-	2.r	2.r
4D	4f	.	.
=36	=36	=36	=36
4E-	4g	2r	4r
2r	2r	.	4r
.	.	4gg	4bb-
=37	=37	=37	=37
2.r	2.r	4ee-	4gg
.	.	4b-	4ee-
.	.	4g	4b-
=38	=38	=38	=38
2D	2f	4B-	4f
.	.	2r	2r
4E-	4g	.	.
=39	=39	=39	=39
4F	4a-	2r	4r
2r	2r	.	4r
.	.	4ff	4aa-
=40	=40	=40	=40
2.r	2.r	4dd	4ff
.	.	4a-	4dd
.	.	4f	4a-
=41	=41	=41	=41
2E-	2g	4e-	4g
.	.	2r	2r
4F	4a-	.	.
=42	=42	=42	=42
4G	4b-	2r	4r
2r	2r	.	4r
.	.	4b-	4dd-
=43	=43	=43	=43
2r	2r	4a-	4cc
.	.	4f	4aa-
4A-	4cc	4r	4r
=44	=44	=44	=44
4G	4b-	2r	4r
4E-	4g	.	4r
4r	4r	4g	4b-
=45	=45	=45	=45
2r	2r	4f	4a-
.	.	4d	4ff
4F	4a-	4r	4r
=46	=46	=46	=46
4E-	4g	2r	4r
4G	4e-	.	4r
4r	4b-	4b-	4b-
=47	=47	=47	=47
4r	4B-	4B-	4B-
4D	4B-	4f	4a-
4E-	4B-	4e-	4g
=48	=48	=48	=48
4B-	4B-	4d	4f
4BB-	2r	2r	2r
4r	.	.	.
=49	=49	=49	=49
2G	2b-	2.r	2.r
4F	4cc	.	.
=50	=50	=50	=50
4E	4dd-	2r	4r
2r	2r	.	4r
.	.	4b-	4dd-
=51	=51	=51	=51
2r	2r	4g	4b-
.	.	4e	4g
4BB-	4e	4r	4r
=52	=52	=52	=52
4AA-	4f	2r	4r
4FF	4a-	.	4r
4r	4r	4a-	4cc
=53	=53	=53	=53
2r	2r	4f	4a-
.	.	4d	4f
4AA-	4d	4r	4r
=54	=54	=54	=54
4GG	4e-	2r	4r
4EE-	4g	.	4r
4r	4r	4g	4b-
=55	=55	=55	=55
2r	2r	4a-	4cc
.	.	4f	4a-
4BB-	4d	4r	4r
=56	=56	=56	=56
4C	4e-	2r	4r
4AA-	4c	.	4r
4r	4r	4dd	4ff
=57	=57	=57	=57
2r	2r	4ee-	4gg
.	.	4cc	4ee-
4F	4a-	4r	4r
=58	=58	=58	=58
4G	4b-	2r	4r
4E-	4g	.	4r
4r	4r	4gg	4bb-
=59	=59	=59	=59
2.r	2.r	4ee-	4gg
.	.	4b-	4ee-
.	.	4g	4b-
=60	=60	=60	=60
2r	2r	4e-	4g
.	.	2r	2r
4GG	4b-	.	.
=61	=61	=61	=61
4AA-	4c	2.r	2.r
4FF	8a-	.	.
.	8f	.	.
4BB-	8e-	.	.
.	8d	.	.
=62	=62	=62	=62
4E-	4e-	2.r	2.r
4EE-	2r	.	.
4r	.	.	.
==	==	==	==
*-	*-	*-	*-
!!!RWG1: This file contains only pitch and duration data.
!!!RWG2: Transposing instruments are not transposed.
!!!RWG3: Spines may have incompatible meters.
!!!RWG4: Durations of rests and tied notes may be interpreted.
!!!RWG: Key is interpreted using the Humdrum key tool.
!!!GTL: 10 Divertimentos
!!!OPT: La chasse
!!!AFT: stage1
!!!END: 1997/04/15
!!!KEY: 1781546545
!!!EMD: Converted from MuseData to Humdrum Dec 16, 2000, by Andreas Kornstaedt using muse2kern.
!!!EMD: Manual editing by Craig Sapp, Nov 2001
